assets/fc/fc-electrical-sensor.svg

<svg xmlns="http://www.w3.org/2000/svg" width="100%" height="100%" viewBox="0 0 48 48"><circle cx="32" cy="24" r="9" fill="#B2EBF2"/><path fill="#4DD0E1" d="M32 12c-6.6 0-12 5.4-12 12s5.4 12 12 12 12-5.4 12-12-5.4-12-12-12zm0 20c-4.4 0-8-3.6-8-8s3.6-8 8-8 8 3.6 8 8-3.6 8-8 8z"/><g fill="#3F51B5"><path d="M25.4 22L19.8 5.1l-6.2 22.6-2.2-5.7H4v4h4.6l5.8 14.3 5.8-21.4 2.4 7.1H30v-4z"/><circle cx="32" cy="24" r="4"/></g></svg>

<svg xmlns="http://www.w3.org/2000/svg" width="100%" height="100%" viewBox="0 0 48 48"><circle cx="32" cy="24" r="9" fill="#B2EBF2"/><path fill="#4DD0E1" d="M32,12c-6.6,0-12,5.4-12,12c0,6.6,5.4,12,12,12s12-5.4,12-12C44,17.4,38.6,12,32,12z M32,32 c-4.4,0-8-3.6-8-8s3.6-8,8-8s8,3.6,8,8S36.4,32,32,32z"/><g fill="#3F51B5"><path d="M25.4 22L19.8 5.1 13.6 27.7 11.4 22 4 22 4 26 8.6 26 14.4 40.3 20.2 18.9 22.6 26 30 26 30 22z"/><circle cx="32" cy="24" r="4"/></g></svg>
